X: 6573
T: Cathleen Hehir's
R: slide
M: 12/8
K: Dmajor
DFB A2A|DFB ABA|1 EEE AAA|EEE A2A:|2 E2A B2c|d5A||
|:ddd d2e|f2d A3|1 fff f2d|c2d e3:|2 EGB A2A|D2D D2D|EGB A2c|d2d d3||

